X: 1416
T: Tady's Wattle
M:C|
L:1/8
N:"collected by Dunphy"
B:O'Neill's 1416
Z:"Transcribed by Bob Safranek, rjs@gsp.org"
K:G
G2 (BG)    BddB | {d}cBcd efge | GBdG       Bdgd | ecBc A2 G2 :|
g2 ((3aga) bggd | {f}edef gdBG | g2 ((3aga) bggd | edcB A2 G2 |
bgaf       gfed |    egfa gedB | GBAc       Bdgd | ecBc A2 G2 |]


